assets/Classical building/Flat/classical_building_flat.svg

<svg width="32" height="32" viewBox="0 0 32 32" fill="none" xmlns="http://www.w3.org/2000/svg">
<path d="M24.0227 11.99H8.00269V27.98H24.0227V11.99Z" fill="#212121"/>
<path d="M3.36262 10.2401L15.3226 3.50007C15.7426 3.26007 16.2626 3.26007 16.6826 3.50007L28.6426 10.2401C29.0026 10.4501 28.8626 11.0001 28.4426 11.0001H27.9926V12.36C27.9926 12.71 27.7126 12.99 27.3626 12.99H4.6626C4.3126 12.99 4.03259 12.71 4.03259 12.36V11.0001H3.56261C3.14261 11.0001 3.00262 10.4401 3.36262 10.2401ZM3.02258 29.97H28.9626H28.9726V27.6C28.9726 27.25 28.6926 26.97 28.3426 26.97H3.65257C3.30257 26.97 3.02258 27.25 3.02258 27.6V29.97ZM11.6626 13.96H14.6526V26.06H11.6626V13.96ZM6 14H9V26H6V14ZM20.3126 13.96H17.3226V26.06H20.3126V13.96ZM22.9826 13.96H25.9726V26.06H22.9826V13.96Z" fill="#9B9B9B"/>
<path d="M16.2526 3.06L28.7726 10.17C29.0026 10.29 29.0726 10.57 28.9426 10.79C28.8626 10.93 28.7026 11.01 28.5426 11.01C28.4626 11.01 28.3726 10.99 28.3026 10.95L16.2326 4.1C16.0926 4.02 15.9126 4.02 15.7726 4.1L3.70261 10.95C3.62261 10.99 3.54261 11.01 3.46261 11.01C3.30261 11.01 3.15261 10.93 3.06261 10.79C2.93261 10.57 3.01261 10.3 3.23261 10.17L15.7526 3.06C15.8326 3.02 15.9226 3 16.0026 3C16.0926 3 16.1726 3.02 16.2526 3.06ZM10.0026 12.99H5.01257V13.18C5.01257 13.63 5.37257 13.99 5.82257 13.99H9.19258C9.64258 13.99 10.0026 13.63 10.0026 13.18V12.99ZM15.6526 12.99H10.6626V13.18C10.6626 13.63 11.0226 13.99 11.4726 13.99H14.8426C15.2926 13.99 15.6526 13.63 15.6526 13.18V12.99ZM16.3326 12.99H21.3226V13.18C21.3226 13.63 20.9626 13.99 20.5126 13.99H17.1426C16.6926 13.99 16.3326 13.63 16.3326 13.18V12.99ZM26.9826 12.99H21.9926V13.18C21.9926 13.63 22.3526 13.99 22.8026 13.99H26.1726C26.6226 13.99 26.9826 13.63 26.9826 13.18V12.99ZM26.9726 26.98H21.9826V26.79C21.9826 26.34 22.3426 25.98 22.7926 25.98H26.1626C26.6126 25.98 26.9726 26.34 26.9726 26.79V26.98ZM16.3326 26.98H21.3226V26.79C21.3226 26.34 20.9626 25.98 20.5126 25.98H17.1426C16.6926 25.98 16.3326 26.34 16.3326 26.79V26.98ZM15.6526 26.98H10.6626V26.79C10.6626 26.34 11.0226 25.98 11.4726 25.98H14.8426C15.2926 25.98 15.6526 26.34 15.6526 26.79V26.98ZM5.00262 26.98H9.99263V26.79C9.99263 26.34 9.63262 25.98 9.18262 25.98H5.81262C5.36262 25.98 5.00262 26.34 5.00262 26.79V26.98Z" fill="#D3D3D3"/>
</svg>

<svg xmlns="http://www.w3.org/2000/svg" width="32" height="32" fill="none"><path fill="#212121" d="M24.023 11.99H8.003v15.99h16.02V11.99Z"/><path fill="#9B9B9B" d="m3.363 10.24 11.96-6.74c.42-.24.94-.24 1.36 0l11.96 6.74c.36.21.22.76-.2.76h-.45v1.36c0 .35-.28.63-.63.63h-22.7c-.35 0-.63-.28-.63-.63V11h-.47c-.42 0-.56-.56-.2-.76Zm-.34 19.73H28.973V27.6c0-.35-.28-.63-.63-.63H3.653c-.35 0-.63.28-.63.63v2.37Zm8.64-16.01h2.99v12.1h-2.99v-12.1ZM6 14h3v12H6V14Zm14.313-.04h-2.99v12.1h2.99v-12.1Zm2.67 0h2.99v12.1h-2.99v-12.1Z"/><path fill="#D3D3D3" d="m16.253 3.06 12.52 7.11c.23.12.3.4.17.62-.08.14-.24.22-.4.22-.08 0-.17-.02-.24-.06L16.233 4.1a.47.47 0 0 0-.46 0l-12.07 6.85c-.08.04-.16.06-.24.06-.16 0-.31-.08-.4-.22a.449.449 0 0 1 .17-.62l12.52-7.11a.542.542 0 0 1 .5 0Zm-6.25 9.93h-4.99v.19c0 .45.36.81.81.81h3.37c.45 0 .81-.36.81-.81v-.19Zm5.65 0h-4.99v.19c0 .45.36.81.81.81h3.37c.45 0 .81-.36.81-.81v-.19Zm.68 0h4.99v.19c0 .45-.36.81-.81.81h-3.37c-.45 0-.81-.36-.81-.81v-.19Zm10.65 0h-4.99v.19c0 .45.36.81.81.81h3.37c.45 0 .81-.36.81-.81v-.19Zm-.01 13.99h-4.99v-.19c0-.45.36-.81.81-.81h3.37c.45 0 .81.36.81.81v.19Zm-10.64 0h4.99v-.19c0-.45-.36-.81-.81-.81h-3.37c-.45 0-.81.36-.81.81v.19Zm-.68 0h-4.99v-.19c0-.45.36-.81.81-.81h3.37c.45 0 .81.36.81.81v.19Zm-10.65 0h4.99v-.19c0-.45-.36-.81-.81-.81h-3.37c-.45 0-.81.36-.81.81v.19Z"/></svg>
